X: 61
T:Shetland Fiddlers
M:C|
L:1/8
S:Altan
R:reel
K:D
(3ABc|d2 fd Adfd|defa afdf|e2 ge Beed|cdef gece|
d2 fd Adfe|defg afdg|(3fga fd (3fga fd|Bgec d2 :|
|:cd|eAfA gAaA|faaf gfed|AeBe cedf|efed cABc|
dDeD fAgA|faaf gfeg|(3fga fd (3fga fd|Bgec d2 :|
